source/img/cat-back-tablet.svg

<svg width="200" height="211" viewBox="0 0 200 211" fill="none" xmlns="http://www.w3.org/2000/svg">
<circle cx="100" cy="111" r="100" fill="#68B738"/>
<g clip-path="url(#clip0)">
<path d="M139.68 0H138.92C137.636 0.718392 136.614 1.81987 136 3.14722C134.875 5.28913 134.009 7.55462 133.42 9.89691C133.294 10.6012 132.934 11.244 132.398 11.7241C131.863 12.2042 131.181 12.4945 130.46 12.5493C128.256 12.9253 126.167 13.7949 124.355 15.0917C122.542 16.3884 121.052 18.0779 120 20.0313C118.553 22.5676 117.316 25.2154 116.3 27.9489C113.46 35.233 111.28 42.7546 108.6 50.0981C107.34 53.4433 107.28 53.4433 103.48 53.4433C98.94 53.4433 99.26 52.7505 99.2 57.699C99.2 59.2627 99.68 60.0544 101.36 59.9753C101.88 59.9753 102.66 59.7179 102.86 60.3909C103.06 61.0639 102.38 61.3608 101.98 61.7567C99.6086 64.1392 96.6075 65.8129 93.32 66.5864C89.52 67.5959 85.64 68.3876 81.94 69.6148C72.44 72.7621 63.66 77.1563 56.82 84.5988C52.8206 89.2214 49.6177 94.4643 47.34 100.117C40 117.219 36.44 135.231 33.68 153.422C32.38 161.953 31.46 170.524 30.76 179.154C30.4 183.39 30 187.685 30 192H96.66C96.7707 191.129 96.6102 190.245 96.2 189.466C95.5589 187.887 94.5171 186.498 93.1753 185.434C91.8335 184.369 90.237 183.665 88.54 183.39C87.14 183.073 86.98 182.657 87.84 181.569C89.2427 179.716 90.318 177.641 91.02 175.433C94.28 165.912 95.54 155.975 97.12 146.138C98.0125 138.624 100.348 131.348 104 124.701C106.849 119.809 110.649 115.523 115.18 112.092C116.84 110.845 116.9 110.845 117.18 112.963C117.38 114.369 117.42 115.814 117.52 117.239C118.12 126.59 118 135.973 117.16 145.306C116.405 152.541 116.304 159.828 116.86 167.08C117.655 175.499 119.174 183.836 121.4 192H148C147.653 189.857 146.656 187.869 145.142 186.3C143.627 184.731 141.667 183.653 139.52 183.212C137.013 182.817 134.45 182.952 132 183.607C130.8 183.885 130.3 183.607 130.2 182.321C129.373 171.842 130.046 161.3 132.2 151.007C134.868 139.125 136.91 127.114 138.32 115.022C138.845 110.139 140.398 105.419 142.88 101.166C145.26 96.9699 147.34 92.6153 149.68 88.3992C150.609 86.8662 151.168 85.1417 151.314 83.3599C151.46 81.5781 151.188 79.7871 150.52 78.1262C149.98 76.7208 149.46 75.2957 148.8 73.9497C146.8 70.0899 144.8 66.2697 142.96 62.3703C141.98 60.3909 142.2 60.1534 144.38 60.094C147.64 60.094 147.64 60.094 147.7 56.8478C147.7 56.4124 147.7 55.9769 147.7 55.5414C147.7 54.1757 147.18 53.4235 145.7 53.5621C144.7 53.5621 143.7 53.5621 142.66 53.5621C141.28 53.5621 140.88 52.988 141.22 51.5827C141.895 49.2981 143.222 47.2551 145.042 45.6995C146.862 44.1438 149.098 43.1418 151.48 42.814C155.911 42.4338 160.376 42.7207 164.72 43.6652C165.221 43.8215 165.765 43.7762 166.232 43.5391C166.7 43.3021 167.055 42.8923 167.22 42.3983C168.02 40.419 168.9 38.4396 169.8 36.4602C170.004 36.109 170.094 35.7044 170.058 35.3008C170.023 34.8973 169.863 34.5144 169.6 34.2037C163.2 26.1674 156.26 18.6656 146.8 13.8557C146.343 13.661 145.942 13.3561 145.635 12.9688C145.328 12.5816 145.123 12.1243 145.04 11.6388C144.505 8.80926 143.653 6.04751 142.5 3.40454C141.959 1.99643 140.969 0.801217 139.68 0V0Z" fill="black"/>
</g>
<defs>
<clipPath id="clip0">
<rect width="140" height="192" fill="white" transform="translate(30)"/>
</clipPath>
</defs>
</svg>

<svg width="200" height="211" fill="none" xmlns="http://www.w3.org/2000/svg"><circle cx="100" cy="111" r="100" fill="#68B738"/><g clip-path="url(#clip0)"><path d="M139.68 0h-.76A6.96 6.96 0 00136 3.15c-1.13 2.14-2 4.4-2.58 6.75a3.21 3.21 0 01-2.96 2.65A14.76 14.76 0 00120 20.03a53.8 53.8 0 00-3.7 7.92c-2.84 7.28-5.02 14.8-7.7 22.15-1.26 3.34-1.32 3.34-5.12 3.34-4.54 0-4.22-.69-4.28 4.26 0 1.56.48 2.35 2.16 2.28.52 0 1.3-.26 1.5.41.2.67-.48.97-.88 1.37a18.05 18.05 0 01-8.66 4.83c-3.8 1-7.68 1.8-11.38 3.02-9.5 3.15-18.28 7.55-25.12 14.99-4 4.62-7.2 9.86-9.48 15.52-7.34 17.1-10.9 35.11-13.66 53.3a368.2 368.2 0 00-2.92 25.73C30.4 183.4 30 187.68 30 192h66.66a4.28 4.28 0 00-.46-2.53 9.9 9.9 0 00-7.66-6.08c-1.4-.32-1.56-.73-.7-1.82a20.42 20.42 0 003.18-6.14c3.26-9.52 4.52-19.46 6.1-29.3A58.96 58.96 0 01104 124.7a42.9 42.9 0 0111.18-12.6c1.66-1.25 1.72-1.25 2 .86.2 1.4.24 2.85.34 4.28.6 9.35.48 18.73-.36 28.07a120.8 120.8 0 00-.3 21.77c.8 8.42 2.31 16.76 4.54 24.92H148a10.67 10.67 0 00-2.86-5.7 10.85 10.85 0 00-5.62-3.09c-2.5-.4-5.07-.26-7.52.4-1.2.27-1.7 0-1.8-1.29a110.44 110.44 0 012-31.31 348.46 348.46 0 006.12-35.99c.53-4.88 2.08-9.6 4.56-13.85 2.38-4.2 4.46-8.55 6.8-12.77a11.54 11.54 0 00.84-10.27c-.54-1.4-1.06-2.83-1.72-4.18-2-3.86-4-7.68-5.84-11.58-.98-1.98-.76-2.22 1.42-2.28 3.26 0 3.26 0 3.32-3.24v-1.3c0-1.37-.52-2.13-2-1.99h-3.04c-1.38 0-1.78-.57-1.44-1.98.68-2.28 2-4.32 3.82-5.88a12.54 12.54 0 016.44-2.89c4.43-.38 8.9-.09 13.24.86a2.02 2.02 0 002.5-1.27c.8-1.98 1.68-3.96 2.58-5.94a1.96 1.96 0 00-.2-2.26c-6.4-8.03-13.34-15.53-22.8-20.34a2.97 2.97 0 01-1.76-2.22 38.46 38.46 0 00-2.54-8.24 6.94 6.94 0 00-2.82-3.4z" fill="#000"/></g><defs><clipPath id="clip0"><path fill="#fff" transform="translate(30)" d="M0 0h140v192H0z"/></clipPath></defs></svg>
